X: 322
T: THE OPEN WINDOW
T: An fuinneog fuasgailte
B: O'Neill's 322
M: 2/4
L: 1/8
Z: 1999 by John Chambers <jc@trillian.mit.edu>
N: "Lively"
N: "Collected by J.O'Neill"
K:D
(D/>E/) \
| FF EF | BA FE/D/ | AA Bc | d2 zc \
| BA FA | Bd/F/ ED/B,/ | DD EF | D2 D ||
|| A \
| dc BA | BA FF/G/ | AA dF | E3 F/A/ \
| dc BA | BA/F/ ED/E/ | FE/D/ EF | D2 D ||


